X: 30721
T: Orkney
R: waltz
M: 3/4
K: Eminor
B,4 EF|G4- GF/<E/|F4 Ad|F4- FD/>D/|E4 GA|B4- BA|d3 A- AG|F4- FD|
B,4 EF|G4- GF/<E/|F4 Ad|F4- FD|E3 B- BA|A3 F- FD|E6|E6||
d3 A- AG|F4- FD|d3 e fd|AF- F2- F2|g3 f eg|B6|e3 f g>e|B6|
B,4 EF|G4- GF/<E/|F4 Ad|F4- FD|E3 B- BA|A3 F- FD|E6|E6||

